assets/img/icons/icon_dribbble.svg

<svg width="24" height="24" viewBox="0 0 24 24" fill="none" xmlns="http://www.w3.org/2000/svg">
<path d="M12 0C5.38281 0 0 5.38281 0 12C0 18.6172 5.38281 24 12 24C18.6172 24 24 18.6172 24 12C24 5.38281 18.6172 0 12 0ZM12 2C14.5352 2 16.832 2.95312 18.5938 4.5C18.4062 4.76172 18.1523 5.07812 17.75 5.46875C16.8945 6.29688 15.5273 7.29297 13.4375 8.0625C12.0234 5.44922 10.6367 3.48438 9.71875 2.25C10.4492 2.08203 11.2148 2 12 2ZM7.75 2.9375C8.57031 4.01172 10.0312 6.00391 11.5 8.65625C7.43359 9.73438 3.70312 9.87109 2.21875 9.875C2.88281 6.78516 4.96094 4.24219 7.75 2.9375ZM19.9688 5.96875C21.1875 7.58203 21.9453 9.57812 22 11.75C21.1094 11.5508 19.7969 11.3555 18.0938 11.3438C17.207 11.3398 16.2031 11.4023 15.125 11.5312C14.875 10.9609 14.6055 10.4102 14.3438 9.875C16.5859 9.01562 18.1133 7.88281 19.125 6.90625C19.4688 6.57031 19.7383 6.26172 19.9688 5.96875ZM12.4062 10.4688C12.6367 10.9336 12.8711 11.4102 13.0938 11.9062C8.82031 13.0898 5.75 16.7148 4.4375 18.5312C2.92578 16.7812 2 14.5 2 12C2 11.957 2 11.918 2 11.875C3.35156 11.8906 7.64844 11.7969 12.4062 10.4688ZM18.0938 13.3125C19.8789 13.3125 21.1133 13.5625 21.8438 13.75C21.3789 16.4141 19.875 18.6992 17.75 20.1875C17.3516 17.7969 16.6953 15.5234 15.9062 13.4375C16.6953 13.3594 17.4414 13.3125 18.0938 13.3125ZM13.875 13.7812C14.7734 16.0625 15.5273 18.5664 15.9062 21.2188C14.7109 21.7227 13.3828 22 12 22C9.70703 22 7.58984 21.2305 5.90625 19.9375C6.93359 18.5312 9.95312 14.7891 13.875 13.7812Z" fill="#FFD600"/>
</svg>

<svg width="24" height="24" fill="none" xmlns="http://www.w3.org/2000/svg"><path d="M12 0C5.383 0 0 5.383 0 12s5.383 12 12 12 12-5.383 12-12S18.617 0 12 0zm0 2c2.535 0 4.832.953 6.594 2.5a7.001 7.001 0 01-.844.969c-.855.828-2.223 1.824-4.313 2.593A47.693 47.693 0 009.72 2.25C10.449 2.082 11.215 2 12 2zm-4.25.938a46.687 46.687 0 013.75 5.718C7.434 9.734 3.703 9.871 2.219 9.875A9.978 9.978 0 017.75 2.937zm12.219 3.03A9.99 9.99 0 0122 11.75c-.89-.2-2.203-.395-3.906-.406-.887-.004-1.89.058-2.969.187-.25-.57-.52-1.12-.781-1.656 2.242-.86 3.77-1.992 4.781-2.969.344-.336.613-.644.844-.937zm-7.563 4.5c.23.466.465.942.688 1.438-4.274 1.184-7.344 4.809-8.656 6.625A9.962 9.962 0 012 12v-.125c1.352.016 5.648-.078 10.406-1.406zm5.688 2.845c1.785 0 3.02.25 3.75.437a9.928 9.928 0 01-4.094 6.438 35.77 35.77 0 00-1.844-6.75c.79-.079 1.535-.126 2.188-.126zm-4.219.468c.898 2.281 1.652 4.785 2.031 7.438A10.06 10.06 0 0112 22c-2.293 0-4.41-.77-6.094-2.063 1.028-1.406 4.047-5.148 7.969-6.156z" fill="#FFD600"/></svg>
